X:144
T:Queen's Mule, The
M:C |
L:1/8
B:Thompson's Compleat Collection of 200 Favourite Country Dances, vol. 2 (London, 1765)
Z:Transcribed and edited by Flynn Titford-Mock, 2006-9
Z:abc's:AK/Fiddler's Companion
K:G
GB dg f2 ed | (3efg dB (3cde cA | GB dg f2 ed | (3efg A^c d4 :|
|: (bag gg (3bag gg | (3dcB BB (3dcB BB | (3BAG GG (3BAG GG | (3dcB (3cBA G4 :|

